src/ui/electricity.svg

<?xml version="1.0" encoding="UTF-8"?><svg xmlns="http://www.w3.org/2000/svg" width="32" height="32" viewBox="0 0 32 32"><defs><style>.uuid-0a0f29ee-f7f7-45d3-b693-26a64fa44e5f{fill:none;}.uuid-41246ff1-753a-4ebb-8c86-1532f52e6024{fill:#151515;}</style></defs><g id="uuid-34d6d5ca-89f0-4165-a4f4-7ee5f781cec6"><rect class="uuid-0a0f29ee-f7f7-45d3-b693-26a64fa44e5f" width="32" height="32"/></g><g id="uuid-6043553c-0ce1-48f9-8187-6b3582fb74fd"><path class="uuid-41246ff1-753a-4ebb-8c86-1532f52e6024" d="M15,31c-.06738,0-.13574-.00684-.20508-.021-.46289-.09717-.79492-.50586-.79492-.979v-11h-4c-.33789,0-.65234-.17041-.83691-.45264s-.21484-.63916-.0791-.94824L16.08398,1.59912c.18848-.43359.65234-.67285,1.12109-.57812.46289.09717.79492.50586.79492.979v11h4c.33789,0,.65234.17041.83691.45264s.21484.63916.0791.94824l-7,16c-.16113.36963-.52539.59912-.91602.59912ZM11.5293,17h2.9707c.82715,0,1.5.67285,1.5,1.5v6.71924l4.4707-10.21924h-2.9707c-.82715,0-1.5-.67285-1.5-1.5v-6.71924l-4.4707,10.21924Z"/></g></svg>

<svg xmlns="http://www.w3.org/2000/svg" viewBox="0 0 32 32">
  <path d="M15 31a1 1 0 0 1-1-1V19h-4a.999.999 0 0 1-.916-1.401l7-16A1 1 0 0 1 18 2v11h4a.999.999 0 0 1 .916 1.401l-7 16A.998.998 0 0 1 15 31Zm-3.471-14H14.5c.827 0 1.5.673 1.5 1.5v6.719L20.471 15H17.5c-.827 0-1.5-.673-1.5-1.5V6.781L11.529 17Z"/>
</svg>
